Catalina-light/actions/16/view-statistics.svg

<svg width="16" height="16" viewBox="0 0 16 16" xmlns="http://www.w3.org/2000/svg">
<defs>
<style id="current-color-scheme" type="text/css">.ColorScheme-Text { color:#5c616c; } .ColorScheme-Highlight { color:#5294e2; }</style>
</defs>
<path class="ColorScheme-Text" d="m13 3v10h2v-10h-2zm-12 2v8h2v-8h-2zm8 2v6h2v-6h-2zm-4 2v4h2v-4h-2z" fill="#363636"/>
</svg>

<svg xmlns="http://www.w3.org/2000/svg" width="16" height="16" viewBox="0 0 16 16">
 <defs>
  <style id="current-color-scheme" type="text/css">
   .ColorScheme-Text { color:#5c616c; } .ColorScheme-Highlight { color:#5294e2; }
  </style>
 </defs>
 <path style="fill:currentColor" class="ColorScheme-Text" d="M 13 3 L 13 13 L 15 13 L 15 3 L 13 3 z M 1 5 L 1 13 L 3 13 L 3 5 L 1 5 z M 9 7 L 9 13 L 11 13 L 11 7 L 9 7 z M 5 9 L 5 13 L 7 13 L 7 9 L 5 9 z"/>
</svg>
